X:86
T:Broun's Reel
T:Brown's Reel [1]
R:Reel
B:The Athole Collection
M:C|
L:1/8
K:C
e|c2ec dBAG|A/B/c BA GEEG|c/d/e/f/ ge dBAG|A/B/c BA GCC:|
f|ecgc dBgB|cAdc BGGB|AFcF GecE|FDGF ECCf|egcg dgBg|
caAc BGG_B|AcFc GcEc|Aagf ecc||

